Numix-GalliumOS/16/actions/document-import.svg

<?xml version="1.0" encoding="UTF-8" standalone="no"?>
<svg
   xmlns:dc="http://purl.org/dc/elements/1.1/"
   xmlns:cc="http://creativecommons.org/ns#"
   xmlns:rdf="http://www.w3.org/1999/02/22-rdf-syntax-ns#"
   xmlns:svg="http://www.w3.org/2000/svg"
   xmlns="http://www.w3.org/2000/svg"
   xmlns:sodipodi="http://sodipodi.sourceforge.net/DTD/sodipodi-0.dtd"
   xmlns:inkscape="http://www.inkscape.org/namespaces/inkscape"
   width="16"
   height="16"
   viewBox="0 0 16 16"
   id="svg2"
   version="1.1"
   inkscape:version="0.91 r13725"
   sodipodi:docname="document-import.svg">
  <metadata
     id="metadata14">
    <rdf:RDF>
      <cc:Work
         rdf:about="">
        <dc:format>image/svg+xml</dc:format>
        <dc:type
           rdf:resource="http://purl.org/dc/dcmitype/StillImage" />
        <dc:title></dc:title>
      </cc:Work>
    </rdf:RDF>
  </metadata>
  <defs
     id="defs12" />
  <sodipodi:namedview
     pagecolor="#ffffff"
     bordercolor="#666666"
     borderopacity="1"
     objecttolerance="10"
     gridtolerance="10"
     guidetolerance="10"
     inkscape:pageopacity="0"
     inkscape:pageshadow="2"
     inkscape:window-width="1366"
     inkscape:window-height="704"
     id="namedview10"
     showgrid="true"
     inkscape:zoom="20.85965"
     inkscape:cx="8"
     inkscape:cy="7.0412111"
     inkscape:window-x="0"
     inkscape:window-y="27"
     inkscape:window-maximized="1"
     inkscape:current-layer="svg2">
    <inkscape:grid
       type="xygrid"
       id="grid4142" />
  </sodipodi:namedview>
  <g
     style="fill-rule:evenodd"
     id="g4"
     transform="matrix(-1,0,0,1,16,0)">
    <path
       style="fill:#ffffff"
       d="m 1.714286,4.9999996e-8 8.571429,0 C 12,4.9999996e-8 12,4.9999996e-8 12,1.7777778 L 12,14.222222 C 12,16 12,16 10.285715,16 L 1.714286,16 C 0,16 0,16 0,14.222222 L 0,1.7777778 C 0,4.9999998e-8 0,4.9999998e-8 1.714286,4.9999998e-8 Z"
       id="path6"
       inkscape:connector-curvature="0" />
    <path
       style="fill:#268bd2"
       d="m 9.3759609,2.6638519 c 0.1406364,0 0.3176995,0.154139 0.5937983,0.375 1.6668018,1.333333 5.0004068,4 5.0004068,4 1.108484,0.8867141 1.104405,1.1165478 0,2 L 9.9697592,13.038852 c -0.8282964,0.662583 -0.9532026,0.375 -1.0000814,-1.125 l -0.031252,-1.875 c -4.9691552,0 -6.9693181,-3.0000001 -6.9380656,-7.0312501 1.9689104,2.03125 3.9690733,3.03125 6.9693176,2.96875 l 0,-1.8125 c 0,-1.000488 0.1250102,-1.5 0.4062831,-1.5 z"
       id="path8"
       inkscape:connector-curvature="0"
       sodipodi:nodetypes="sssssccccss" />
  </g>
</svg>

<svg xmlns="http://www.w3.org/2000/svg" viewBox="0 0 16 16">
 <g transform="matrix(-1,0,0,1,16,0)" style="fill-rule:evenodd">
  <path d="m 1.714 0 8.571 0 c 1.714 0 1.714 0 1.714 1.778 l 0 12.444 c 0 1.778 0 1.778 -1.714 1.778 l -8.571 0 c -1.714 0 -1.714 0 -1.714 -1.778 l 0 -12.444 c 0 -1.778 0 -1.778 1.714 -1.778" style="fill:#fff"/>
  <path d="m 9.376 2.664 c 0.141 0 0.318 0.154 0.594 0.375 1.667 1.333 5 4 5 4 1.108 0.887 1.104 1.117 0 2 l -5 4 c -0.828 0.663 -0.953 0.375 -1 -1.125 l -0.031 -1.875 c -4.969 0 -6.969 -3 -6.938 -7.03 1.969 2.031 3.969 3.03 6.969 2.969 l 0 -1.813 c 0 -1 0.125 -1.5 0.406 -1.5 z" style="fill:#268bd2"/>
 </g>
</svg>
